X:53214
F:http://www.vwml.org/record/HAM/5/32/14%%VWML:HAM-5-32-14-0
T:Rambling Sailor
S:Mrs Marina Russell, Upwey coll. HED Hammond
O:England
A:Dorset
N:Transcribed from HAM-02-232.gif
Z:EFDSS;PJHeadford
M:C
L:1/4
Q:2/4=50
K:D
D|D>E FE|DD/ D/ =cB|A>B A/G/E&xxxE/D/|(DC)DD|
D>E FE|DD/ D/ =cB|A>B A/G/ E&xxxE/D/|(DC)DF|
AAdA|A/ B/ =cdd|=cB AB|=cB A/HF/ FE|
D"_Third flattened">E =FE|DD/ D/=cB|AA/ B/ A/ G/E|(DC)D||
W:Transcribed from HAM-02-232.gif
W:[left of title:] Mixolydian 514 [right of title:] Mrs Russell of Upwey
W:[after tune:] Words D VII p.7 cp. tune 429
W:[bar 13 has a leader line from above to below the bar (!) and to the text:] Third flattened
W:The MIDI file HAM-05-32-13.mid plays 2 verses, the second using the alternatives of bars 3 & 7.
